src/pos-icons/motion-sensor.svg

<svg height="24" viewBox="0 0 24 24" width="24" xmlns="http://www.w3.org/2000/svg"><path d="m10 .2c-1 0-1.8.8-1.8 1.8s.8 1.8 1.8 1.8 1.8-.8 1.8-1.8-.8-1.8-1.8-1.8m5.67.8a7.33 7.33 0 0 0 7.33 7.33v-1.33a6 6 0 0 1 -6-6zm2.66 0c0 2.58 2.09 4.67 4.67 4.67v-1.34c-1.84 0-3.33-1.49-3.33-3.33zm2.67 0a2 2 0 0 0 2 2v-2zm-13.08 3.03c-.17 0-.34.03-.5.08l-5.42 1.69v5.2h1.8v-3.67l2.11-.66-3.91 15.33h1.8l2.87-8.11 2.33 3.11v5h1.8v-6.41l-2.49-4.54.73-2.87 1.08 1.82h4.88v-1.8h-3.62l-2-3.33c-.3-.5-.84-.84-1.46-.84z"/></svg>

<?xml version="1.0" encoding="UTF-8"?><!DOCTYPE svg PUBLIC "-//W3C//DTD SVG 1.1//EN" "http://www.w3.org/Graphics/SVG/1.1/DTD/svg11.dtd"><svg xmlns="http://www.w3.org/2000/svg" xmlns:xlink="http://www.w3.org/1999/xlink" version="1.1" id="mdi-motion-sensor" width="24" height="24" viewBox="0 0 24 24"><path d="M10,0.2C9,0.2 8.2,1 8.2,2C8.2,3 9,3.8 10,3.8C11,3.8 11.8,3 11.8,2C11.8,1 11,0.2 10,0.2M15.67,1A7.33,7.33 0 0,0 23,8.33V7A6,6 0 0,1 17,1H15.67M18.33,1C18.33,3.58 20.42,5.67 23,5.67V4.33C21.16,4.33 19.67,2.84 19.67,1H18.33M21,1A2,2 0 0,0 23,3V1H21M7.92,4.03C7.75,4.03 7.58,4.06 7.42,4.11L2,5.8V11H3.8V7.33L5.91,6.67L2,22H3.8L6.67,13.89L9,17V22H10.8V15.59L8.31,11.05L9.04,8.18L10.12,10H15V8.2H11.38L9.38,4.87C9.08,4.37 8.54,4.03 7.92,4.03Z" /></svg>
